X: 26791
T: Miller Of Drone, The
R: strathspey
M: 4/4
K: Gmajor
(3GBA|G>EE<G D3B|G3B A2 (3ABA|G>EE<G D3B|c>ED>F G2(3GBA|
G>EE<G D3B|G3B A2 (3ABc|d>AB>F G>DE<B|c<ED<F G2 (3GBc||
d>BB<g d2 e/d/c/B/|d>BB<g e2 (3efg|d>BB<g d2 e/d/c/B/|c>AB<G E2 (3GBc|
d>BB<g d2 e/d/c/B/|d>fg>f e>de>f|(3gfe (3def (3gdc (3BAG|(3cBA (3BAG (3Eed (3cBA||

